X: 39
T:Nancy's Fancy
% Nottingham Music Database
S:via PR
M:4/4
L:1/4
K:G
D|"G"GB BA/2B/2|"Am"cA "D7"Ad|"G"BG GB|"D7"A/2G/2F/2E/2 DD|"G"GB BA/2B/2|\
"Am"cA "D7"Ad|"G"BG "D7"AF|"G"G3::
g|"D7"fe dc|"G"BA GB|dg dB|"G"B2 "A7"Ag|"D7"fe dc|"G"BA Bc|"G"dg "D7"fd|"G"g3\
::
D|"G"BB B/2A/2B|"C"cc c/2B/2c|"G"BB B/2A/2B|"D7"A/2G/2F/2E/2 DD|
"G"BB B/2A/2B|"Am"cc "D7"c/2B/2c|"G"BG "D7"AF|"G"G3:|


